icons/inbox-chevron-down-outline.svg

<svg xmlns="http://www.w3.org/2000/svg" width="24" height="24" viewBox="0 0 24 24">
  <path d="M19,2 C20.5976809,2 21.9036609,3.24891996 21.9949073,4.82372721 L22,5 L22,19 C22,20.5976809 20.75108,21.9036609 19.1762728,21.9949073 L19,22 L5,22 C3.40231912,22 2.09633912,20.75108 2.00509269,19.1762728 L2,19 L2,5 C2,3.40231912 3.24891996,2.09633912 4.82372721,2.00509269 L5,2 L19,2 Z M19,4 L5,4 C4.48716416,4 4.06449284,4.38604019 4.00672773,4.88337887 L4,5 L4,14 L6,14 C7.1045695,14 8,14.8954305 8,16 C8,17.1045695 8.8954305,18 10,18 L14,18 C15.1045695,18 16,17.1045695 16,16 C16,14.8954305 16.8954305,14 18,14 L20,14 L20,5 C20,4.48716416 19.6139598,4.06449284 19.1166211,4.00672773 L19,4 Z M8.38710056,7.70970461 C8.77939176,7.40467972 9.34662282,7.43240926 9.70710678,7.79289322 L9.70710678,7.79289322 L12,10.085 L14.2928932,7.79289322 L14.3871006,7.70970461 C14.7793918,7.40467972 15.3466228,7.43240926 15.7071068,7.79289322 C16.0976311,8.18341751 16.0976311,8.81658249 15.7071068,9.20710678 L15.7071068,9.20710678 L12.7071068,12.2071068 L12.6128994,12.2902954 C12.2206082,12.5953203 11.6533772,12.5675907 11.2928932,12.2071068 L11.2928932,12.2071068 L8.29289322,9.20710678 L8.20970461,9.11289944 C7.90467972,8.72060824 7.93240926,8.15337718 8.29289322,7.79289322 L8.29289322,7.79289322 Z"/>
</svg>

<svg xmlns="http://www.w3.org/2000/svg" viewBox="0 0 24 24">
  <path d="M19 2a3 3 0 0 1 3 2.82V19a3 3 0 0 1-2.82 3H5a3 3 0 0 1-3-2.82V5a3 3 0 0 1 2.82-3H19zm0 2H5a1 1 0 0 0-1 .88V14h2a2 2 0 0 1 2 2c0 1.1.9 2 2 2h4a2 2 0 0 0 2-2c0-1.1.9-2 2-2h2V5a1 1 0 0 0-.88-1H19zM8.39 7.71a1 1 0 0 1 1.32.08L12 10.1l2.3-2.3.09-.08a1 1 0 0 1 1.32 1.5l-3 3-.1.08a1 1 0 0 1-1.32-.08l-3-3-.08-.1a1 1 0 0 1 .08-1.32z"/>
</svg>
